X:2504
T:The Deacon of the Weavers
P:Master Reginald MacDonald
C:R. MacDonald (Skye)
R:Strathspey (8x32)
B:RSCDS 25-4
Z:Anselm Lingnau <anselm@strathspey.org>
M:C
L:1/8
K:A
e|"A"A<A e<A "D"af "E"e<e|"D"fe "A"ae "E"f<B B2|\
  "A"A<A e<A "D"af "A"e<e|"E"fe "D"a<c "E7"B2 "A"Ae|
  "A"A<A e<A "D"af "E"e<e|"D"fe "A"ae "E"f<B B2|\
  "A"A<A e<A "D"af "A"e<e|"E"fe "D"a<c "E7"B2 "A"A||
e|"A"A<A cA eAcA|"E"E<E GE [BE]E G[BE]|\
  "A"A<A cA eAcA|"E7"E<E GB "A"A2 A2|
  "A"A<A cA aecA|"E"E<E GE [BE]E G[BE]|\
  "A"(3ABc "E7"(3Bcd "A"(3cde "Bm"(3def|"E7"(3agf (3efg "A"a2 a|]

